X:19
T:Seigneur, venez - E20
C:D. Rimaud
M:6/8
K:Cm
B,C2E|E2D E2F|EED CDE|C2B, C2E|E2F G2c|c2B cBG|G3- G zc|BcA G2F|
E2D FFG|G3- G zF|GGB G2F|E2F GFE|D3- D zC|C3 B,CE|F2F G3|G2||
